X:1
T:Title
%%score 1 ( 2 3 )
L:1/8
Q:1/4=68
M:6/8
K:F
V:1 treble nm="Strings 1, Treble"
V:2 bass nm="Strings 1, Bass"
V:3 bass 
V:1
 z3 z2 [CF] | [FA][FA][FA] [EG][EA][EG] | F2 D C2 [FA] | [EG][FA][GB] [GB][FA][EG] | %4
 [FA]3- [FA]2 [FA] | [Fc][Fc][Fc] F[FG][FA] | [FB][FB][FB] [Fd]2[Q:1/4=68] [Fd][Q:1/4=12] | %7
 [Fc][FA][CF] [CE][CF][CG] | [CF]3- [CF]2 [Fc] | [Fc][Fc][Fc] [FA]2 [Af] | %10
 [Af][Af][Af] [Ac]2[Q:1/4=67] [FA][Q:1/4=66] | %11
 [FA][FG]F F[FG][FA][Q:1/4=64][Q:1/4=63][Q:1/4=62][Q:1/4=61][Q:1/4=60][Q:1/4=59][Q:1/4=58][Q:1/4=57][Q:1/4=56][Q:1/4=55][Q:1/4=54][Q:1/4=53][Q:1/4=52][Q:1/4=51][Q:1/4=50] | %12
 [EG]3- [EG]2[Q:1/4=68] F | [FA][FA][FA] [Fc]2 [Fc] | [Fd][FB][FB] [FB]2[Q:1/4=68] [Fd][Q:1/4=12] | %15
 [Fc][FA][CF] [CE][CF][CG] | [CF]6 |] %17
V:2
 z3 z2 [F,A,] | [F,C][F,C][F,C] [C,C][C,C][C,B,] | .A,3 z3 | [C,C][C,C][C,C] [C,C][C,C][C,C] | %4
w: 1.~Come,~|jus ti fied~ soul,~ to~ the~|cross,~|full ness~ is~ wait ing~ for~|
 [F,C]3- [F,C]2 [F,C] | [F,A,][F,A,][F,A,] [_E,A,][D,B,][C,C] | %6
w: thee;~ * The~|will~ of~ the~ Lord~ is~ re|
 [B,,D][B,,D][B,,D] [B,,B,]2 [B,,B,] | [C,A,][C,C][C,A,] [C,G,][C,A,][C,B,] | %8
w: vealed~ in~ His~ Word,~ That~|thou~ shouldst~ now~ sanc ti fied~|
 [F,,F,A,]3- [F,,F,A,]2 [F,A,] | [F,A,][F,A,][F,A,] [F,C]2 [F,C] | [F,C][F,C][F,C] [F,F]2 [F,C] | %11
w: be.~ * *|||
 [F,C][F,B,][F,A,] [D,A,][D,B,][G,,=B,] | [C,C]3- [C,C]2 [F,A,] | [F,C][F,C][F,C] [F,A,]2 [F,A,] | %14
w: |||
 [B,,B,][B,,D][B,,D] [B,,D]2 [B,,B,] | [C,A,][C,C][C,A,] [C,G,][C,A,][C,B,] | [F,,F,A,]6 |] %17
w: |||
V:3
 x6 | x6 | F,2- [F,-B,] [F,A,]2 [F,C] | x6 | x6 | x6 | x6 | x6 | x6 | x6 | x6 | x6 | x6 | x6 | x6 | %15
w: ||* * * The~|||||||||||||
 x6 | x6 |] %17
w: ||

